web/app/themes/ilsfa/assets/svgs/logo.svg

<svg xmlns="http://www.w3.org/2000/svg" width="88" height="88" viewBox="0 0 88 88">
  <defs>
    <filter id="logo-a" width="104.9%" height="139.8%" x="-2.4%" y="-19.9%" filterUnits="objectBoundingBox">
      <feOffset dy="2" in="SourceAlpha" result="shadowOffsetOuter1"/>
      <feGaussianBlur in="shadowOffsetOuter1" result="shadowBlurOuter1" stdDeviation="8"/>
      <feColorMatrix in="shadowBlurOuter1" result="shadowMatrixOuter1" values="0 0 0 0 0   0 0 0 0 0   0 0 0 0 0  0 0 0 0.5 0"/>
      <feMerge>
        <feMergeNode in="shadowMatrixOuter1"/>
        <feMergeNode in="SourceGraphic"/>
      </feMerge>
    </filter>
  </defs>
  <path fill="#FACE0C" d="M85.8205,74.13425 L95.929375,69.947375 C96.42375,69.74175 96.993375,69.858125 97.367875,70.2405 L98.018875,70.904625 C98.52375,71.41825 98.52025,72.2425 98.011,72.750875 L90.15525,80.606625 C89.42025,81.3425 88.20925,81.276875 87.55475,80.4675 C86.56775,79.246875 85.69975,77.950125 84.955125,76.593 C84.45375,75.6795 84.858,74.53325 85.8205,74.13425 Z M130.178625,53.86575 L120.753125,57.77 C119.87375,58.134 118.906875,57.48825 118.906875,56.537125 L118.906875,54.883375 C118.906875,54.529 119.048625,54.1895 119.298875,53.938375 L125.843,47.393375 C126.578875,46.658375 127.789875,46.724 128.4435,47.533375 C129.4305,48.754 130.299375,50.049875 131.044,51.407875 C131.5445,52.321375 131.141125,53.467625 130.178625,53.86575 Z M118.906875,61.8125 L118.906875,61.305875 C118.906875,60.77475 119.227125,60.297 119.717125,60.094 L130.848,55.483625 C131.811375,55.084625 132.906875,55.609625 133.19825,56.60975 C133.63225,58.096375 133.934125,59.62675 134.100375,61.188625 C134.20975,62.222875 133.3995,63.125 132.36,63.125 L120.219375,63.125 C119.494875,63.125 118.906875,62.537875 118.906875,61.8125 Z M118.906875,66.694125 L118.906875,66.1875 C118.906875,65.463 119.494875,64.875 120.219375,64.875 L132.36,64.875 C133.3995,64.875 134.20975,65.778 134.100375,66.81225 C133.934125,68.37325 133.63225,69.9045 133.19825,71.391125 C132.906875,72.39125 131.811375,72.91625 130.848,72.51725 L119.717125,67.906875 C119.227125,67.703875 118.906875,67.22525 118.906875,66.694125 Z M118.976875,73.7405 L117.606625,70.433 C117.5025,70.181 117.5305,69.894 117.681875,69.66825 C117.898,69.3445 118.31275,69.219375 118.6715,69.368125 L130.178625,74.13425 C131.141125,74.53325 131.5445,75.6795 131.044,76.593 C130.299375,77.950125 129.4305,79.246875 128.4435,80.4675 C127.789875,81.276875 126.578875,81.3425 125.843,80.606625 L118.976875,73.7405 Z M116.224125,81.222625 L116.224125,78.41475 C116.224125,78.0525 116.337,77.698125 116.546125,77.402375 L117.447375,76.131 C117.760625,75.689125 118.395875,75.634875 118.78,76.018125 L124.60575,81.843875 C125.341625,82.57975 125.276,83.789875 124.466625,84.444375 C123.246,85.431375 121.950125,86.30025 120.59125,87.044875 C119.67775,87.545375 118.532375,87.142 118.133375,86.1795 L116.357125,81.892 C116.269625,81.68025 116.224125,81.45275 116.224125,81.222625 Z M109.169875,85.210875 L109.764,84.321 C109.99675,83.973625 110.44125,83.838875 110.82625,83.998125 L111.878875,84.43475 C112.475625,84.6815 113.159875,84.58 113.658625,84.1705 L114.052375,83.8485 C114.505625,83.47575 115.189875,83.64725 115.41475,84.18975 L116.516375,86.848875 C116.915375,87.811375 116.390375,88.906875 115.39025,89.199125 C113.903625,89.633125 112.372375,89.935875 110.81225,90.100375 C109.777125,90.210625 108.875,89.400375 108.875,88.36 L108.875,86.183 C108.875,85.837375 108.977375,85.49875 109.169875,85.210875 Z M103.79825,78.543375 C103.893625,78.63875 103.954,78.76475 103.96625,78.8995 L104.1325,80.576 L104.1325,82.94725 C104.1325,83.684875 104.5945,84.34375 105.288375,84.594 L105.967375,84.838125 C106.66125,85.088375 107.125,85.746375 107.125,86.484875 L107.125,88.36 C107.125,89.400375 106.222,90.210625 105.18775,90.100375 C103.62675,89.935875 102.0955,89.633125 100.608875,89.199125 C99.60875,88.906875 99.08375,87.811375 99.481875,86.848875 L102.8445,78.732375 C103.00375,78.347375 103.503375,78.2485 103.79825,78.543375 Z M101.3535,72.395625 C101.45675,72.498875 101.48825,72.6555 101.43225,72.79025 L100.888,74.1045 C100.61675,74.758125 100.766375,75.5115 101.266875,76.012 C101.61425,76.3585 101.7175,76.88 101.529375,77.33325 L97.86575,86.1795 C97.467625,87.142 96.3205,87.545375 95.407,87.044875 C94.049,86.30025 92.753125,85.431375 91.531625,84.444375 C90.723125,83.789875 90.6575,82.57975 91.393375,81.843875 L100.841625,72.395625 C100.9825,72.25475 101.212625,72.25475 101.3535,72.395625 Z M95.26875,65.38775 L96.42375,66.543625 C96.587375,66.706375 96.67925,66.928625 96.67925,67.159625 C96.67925,67.51225 96.466625,67.829875 96.141125,67.964625 L85.15025,72.51725 C84.188625,72.91625 83.09225,72.39125 82.800875,71.391125 C82.366875,69.9045 82.064125,68.37325 81.899625,66.81225 C81.79025,65.778 82.59875,64.875 83.64,64.875 L94.0315,64.875 C94.49525,64.875 94.940625,65.059625 95.26875,65.38775 Z M94.756,60.605 L94.4655,62.068 C94.343,62.683125 93.804,63.125 93.1775,63.125 L83.64,63.125 C82.59875,63.125 81.79025,62.222875 81.899625,61.188625 C82.064125,59.62675 82.366875,58.096375 82.800875,56.60975 C83.09225,55.609625 84.188625,55.084625 85.15025,55.483625 L93.97025,59.13675 C94.5495,59.3765 94.8785,59.99075 94.756,60.605 Z M96.002,54.337375 L95.987125,54.40825 C95.8725,54.988375 96.058875,55.58775 96.48325,55.999875 L97.145625,56.6465 C97.219125,56.71825 97.2515,56.822375 97.231375,56.923 C97.212125,57.02275 97.143,57.105875 97.05025,57.144375 L96.0615,57.553875 C95.633625,57.7315 95.1515,57.7315 94.72275,57.553875 L85.8205,53.86575 C84.858,53.467625 84.45375,52.321375 84.955125,51.407875 C85.69975,50.049875 86.56775,48.754 87.55475,47.533375 C88.20925,46.724 89.42025,46.658375 90.15525,47.393375 L95.5225,52.760625 C95.9355,53.17275 96.114875,53.76425 96.002,54.337375 Z M101.375375,50.882 C101.25725,51.169 100.976375,51.35625 100.666625,51.35625 L98.0425,51.35625 C97.114125,51.35625 96.22425,50.987 95.568,50.33075 L91.393375,46.156125 C90.6575,45.421125 90.723125,44.210125 91.531625,43.5565 C92.753125,42.568625 94.049,41.700625 95.407,40.956 C96.3205,40.454625 97.467625,40.858875 97.86575,41.821375 L101.375375,50.294875 C101.45325,50.483 101.45325,50.693875 101.375375,50.882 Z M105.8125,44.75 L102.141875,44.75 C101.434875,44.75 100.796125,44.323875 100.52575,43.67025 L99.481875,41.152 C99.08375,40.1895 99.60875,39.093125 100.608875,38.80175 C102.0955,38.36775 103.62675,38.065 105.18775,37.899625 C106.222,37.79025 107.125,38.6005 107.125,39.640875 L107.125,43.4375 C107.125,44.162875 106.537,44.75 105.8125,44.75 Z M114.148625,44.75 L110.1875,44.75 C109.462125,44.75 108.875,44.162875 108.875,43.4375 L108.875,39.640875 C108.875,38.6005 109.777125,37.79025 110.81225,37.899625 C112.372375,38.065 113.903625,38.36775 115.39025,38.80175 C116.390375,39.093125 116.915375,40.1895 116.516375,41.152 L115.361375,43.93975 C115.158375,44.430625 114.67975,44.75 114.148625,44.75 Z M117.750125,50.576625 C117.2085,49.5625 116.924125,48.431125 116.922375,47.28225 L116.920625,45.44825 C116.920625,44.987125 117.01075,44.53125 117.1875,44.105125 L118.133375,41.821375 C118.532375,40.858875 119.67775,40.454625 120.59125,40.956 C121.950125,41.700625 123.246,42.568625 124.466625,43.5565 C125.276,44.210125 125.341625,45.421125 124.60575,46.156125 L119.871125,50.89075 C119.237625,51.52425 118.173625,51.365875 117.750125,50.576625 Z M99.64725,70.064625 L98.6795,69.0785 C98.519375,68.914875 98.42925,68.694375 98.42925,68.465125 L98.42925,66.79825 C98.42925,66.3345 98.244625,65.889125 97.9165,65.561 L96.277625,63.922125 C96.071125,63.715625 95.981,63.419 96.037875,63.132875 L96.74225,59.587375 C96.8,59.300375 96.995125,59.060625 97.266375,58.9495 L98.302375,58.519875 C98.571875,58.407875 98.76875,58.169 98.82475,57.882 L99.07325,56.636875 C99.130125,56.346375 99.0365,56.047125 98.82475,55.83975 L98.18075,55.2115 C97.88325,54.921875 97.752875,54.501875 97.833375,54.095 C97.94625,53.520125 98.451125,53.10625 99.0365,53.10625 L101.179375,53.10625 C101.88725,53.10625 102.525125,52.67925 102.7955,52.025625 L103.209375,51.02725 C103.387875,50.59675 103.387,50.112 103.20675,49.6815 L102.890875,48.926375 C102.407875,47.773125 103.254875,46.5 104.50525,46.5 L113.425,46.5 C114.391,46.5 115.175,47.283125 115.175,48.25 C115.175,49.0515 115.371875,49.84075 115.75075,50.54775 L116.329125,51.630125 C116.8725,52.646 117.156875,53.78 117.156875,54.932375 L117.156875,66.24175 C117.156875,66.933875 116.952125,67.611125 116.567125,68.186875 L115.98525,69.0575 C115.660625,69.543125 115.599375,70.16 115.823375,70.699875 L116.68175,72.770125 C116.911,73.326625 116.840125,73.961 116.49275,74.451875 L115.118125,76.390875 C114.699875,76.982375 114.474125,77.689375 114.474125,78.41475 L114.474125,80.823625 C114.474125,81.08525 114.356875,81.33375 114.15475,81.5 L112.95425,82.48525 C112.704875,82.69 112.36275,82.74075 112.064375,82.617375 L110.83325,82.10725 C110.0615,81.787875 109.171625,82.057375 108.707875,82.75125 L108.434875,83.16075 C108.21175,83.495 107.78825,83.634125 107.411125,83.497625 L106.46,83.1555 C106.112625,83.030375 105.8825,82.701375 105.8825,82.332125 L105.8825,80.49025 L105.748625,79.14275 C105.669875,78.336875 105.312875,77.5835 104.740625,77.010375 L102.918,75.18775 C102.66775,74.9375 102.5925,74.56125 102.728125,74.234 L103.365125,72.696625 C103.50075,72.369375 103.4255,71.993125 103.17525,71.742875 L101.7875,70.355125 C101.53725,70.104875 101.161,70.0305 100.83375,70.16525 L100.60625,70.25975 C100.276375,70.39625 99.8975,70.31925 99.64725,70.064625 Z M127.798625,44.201375 C122.510125,38.912875 115.478625,36 108,36 C100.5205,36 93.489,38.912875 88.2005,44.201375 C82.912,49.489875 80,56.521375 80,64 C80,71.4795 82.912,78.510125 88.2005,83.7995 C93.489,89.088 100.5205,92 108,92 C115.478625,92 122.510125,89.088 127.798625,83.7995 C133.087125,78.510125 136,71.4795 136,64 C136,56.521375 133.087125,49.489875 127.798625,44.201375 Z" filter="url(#logo-a)" transform="translate(-64 -22)"/>
</svg>

<svg xmlns="http://www.w3.org/2000/svg" width="88" height="88" viewBox="0 0 88 88"><defs><filter id="logo-a" width="104.9%" height="139.8%" x="-2.4%" y="-19.9%" filterUnits="objectBoundingBox"><feOffset dy="2" in="SourceAlpha" result="shadowOffsetOuter1"/><feGaussianBlur in="shadowOffsetOuter1" result="shadowBlurOuter1" stdDeviation="8"/><feColorMatrix in="shadowBlurOuter1" result="shadowMatrixOuter1" values="0 0 0 0 0 0 0 0 0 0 0 0 0 0 0 0 0 0 0.5 0"/><feMerge><feMergeNode in="shadowMatrixOuter1"/><feMergeNode in="SourceGraphic"/></feMerge></filter></defs><path fill="#FACE0C" d="M85.82 74.134l10.11-4.187a1.31 1.31 0 0 1 1.438.293l.65.665a1.31 1.31 0 0 1-.007 1.846l-7.856 7.856a1.751 1.751 0 0 1-2.6-.14 26.218 26.218 0 0 1-2.6-3.874 1.75 1.75 0 0 1 .865-2.459zm44.359-20.268l-9.426 3.904a1.335 1.335 0 0 1-1.846-1.233v-1.654c0-.354.142-.694.392-.945l6.544-6.545a1.752 1.752 0 0 1 2.6.14 26.178 26.178 0 0 1 2.601 3.875c.5.913.097 2.06-.865 2.458zm-11.272 7.947v-.507c0-.531.32-1.009.81-1.212l11.131-4.61a1.75 1.75 0 0 1 2.35 1.126c.434 1.486.736 3.017.902 4.579a1.752 1.752 0 0 1-1.74 1.936h-12.14a1.312 1.312 0 0 1-1.313-1.313zm0 4.881v-.507c0-.724.588-1.312 1.312-1.312h12.141c1.04 0 1.85.903 1.74 1.937a26.254 26.254 0 0 1-.902 4.58 1.75 1.75 0 0 1-2.35 1.125l-11.13-4.61a1.313 1.313 0 0 1-.811-1.213zm.07 7.046l-1.37-3.307a.815.815 0 0 1 1.064-1.065l11.508 4.766a1.751 1.751 0 0 1 .865 2.459 26.224 26.224 0 0 1-2.6 3.874 1.751 1.751 0 0 1-2.601.14l-6.866-6.867zm-2.753 7.483v-2.808c0-.363.113-.717.322-1.013l.901-1.271a.875.875 0 0 1 1.333-.113l5.826 5.826c.736.736.67 1.946-.14 2.6a26.14 26.14 0 0 1-3.875 2.6 1.75 1.75 0 0 1-2.458-.864l-1.776-4.288a1.753 1.753 0 0 1-.133-.67zm-7.054 3.988l.594-.89a.876.876 0 0 1 1.062-.323l1.053.437a1.75 1.75 0 0 0 1.78-.264l.393-.323a.874.874 0 0 1 1.363.342l1.101 2.659a1.75 1.75 0 0 1-1.126 2.35 26.097 26.097 0 0 1-4.578.901 1.75 1.75 0 0 1-1.937-1.74v-2.177c0-.346.102-.684.295-.972zm-5.372-6.668a.58.58 0 0 1 .168.356l.166 1.677v2.371a1.75 1.75 0 0 0 1.156 1.647l.68.244c.693.25 1.157.908 1.157 1.647v1.875c0 1.04-.903 1.85-1.937 1.74a26.091 26.091 0 0 1-4.58-.9 1.751 1.751 0 0 1-1.126-2.351l3.362-8.117a.585.585 0 0 1 .954-.189zm-2.445-6.147c.104.103.135.26.08.394l-.545 1.314a1.75 1.75 0 0 0 .379 1.908c.347.347.45.868.262 1.321l-3.663 8.847a1.75 1.75 0 0 1-2.459.865 26.232 26.232 0 0 1-3.875-2.6 1.752 1.752 0 0 1-.139-2.601l9.449-9.448c.14-.141.37-.141.511 0zm-6.084-7.008l1.155 1.156a.87.87 0 0 1-.283 1.42l-10.99 4.553a1.75 1.75 0 0 1-2.35-1.126 26.091 26.091 0 0 1-.901-4.579 1.751 1.751 0 0 1 1.74-1.937h10.391c.464 0 .91.185 1.238.513zm-.513-4.783l-.29 1.463a1.313 1.313 0 0 1-1.288 1.057H83.64a1.75 1.75 0 0 1-1.74-1.936c.164-1.562.467-3.093.9-4.58a1.75 1.75 0 0 1 2.35-1.125l8.82 3.653c.58.24.909.854.786 1.468zm1.246-6.268l-.015.071c-.114.58.072 1.18.496 1.592l.663.647a.303.303 0 0 1-.096.497l-.989.41c-.427.177-.91.177-1.338 0l-8.903-3.688a1.75 1.75 0 0 1-.865-2.458 26.173 26.173 0 0 1 2.6-3.875 1.752 1.752 0 0 1 2.6-.14l5.367 5.368a1.75 1.75 0 0 1 .48 1.576zm5.373-3.455a.767.767 0 0 1-.708.474h-2.624a3.5 3.5 0 0 1-2.475-1.025l-4.175-4.175a1.75 1.75 0 0 1 .139-2.6 26.164 26.164 0 0 1 3.875-2.6 1.75 1.75 0 0 1 2.459.865l3.51 8.474a.767.767 0 0 1 0 .587zm4.438-6.132h-3.671a1.75 1.75 0 0 1-1.616-1.08l-1.044-2.518a1.75 1.75 0 0 1 1.127-2.35 26.173 26.173 0 0 1 4.579-.902c1.034-.11 1.937.7 1.937 1.74v3.797c0 .726-.588 1.313-1.313 1.313zm8.336 0h-3.962a1.312 1.312 0 0 1-1.312-1.313v-3.796c0-1.04.902-1.85 1.937-1.741a26.18 26.18 0 0 1 4.578.902 1.75 1.75 0 0 1 1.126 2.35l-1.155 2.788c-.203.49-.681.81-1.212.81zm3.601 5.827a7.016 7.016 0 0 1-.828-3.295l-.001-1.834c0-.46.09-.917.266-1.343l.946-2.284a1.75 1.75 0 0 1 2.458-.865 26.073 26.073 0 0 1 3.876 2.6 1.75 1.75 0 0 1 .139 2.6l-4.735 4.735a1.335 1.335 0 0 1-2.12-.314zM99.647 70.065l-.968-.986a.878.878 0 0 1-.25-.614v-1.667c0-.463-.184-.909-.513-1.237l-1.638-1.639a.876.876 0 0 1-.24-.79l.704-3.545a.873.873 0 0 1 .524-.638l1.036-.43a.873.873 0 0 0 .523-.637l.248-1.245a.88.88 0 0 0-.248-.797l-.644-.629a1.226 1.226 0 0 1 .856-2.105h2.142a1.75 1.75 0 0 0 1.617-1.08l.413-.999a1.75 1.75 0 0 0-.002-1.346l-.316-.755a1.75 1.75 0 0 1 1.614-2.426h8.92c.966 0 1.75.783 1.75 1.75 0 .801.197 1.59.576 2.298l.578 1.082a7 7 0 0 1 .828 3.302v11.31a3.5 3.5 0 0 1-.59 1.945l-.582.87a1.75 1.75 0 0 0-.162 1.643l.859 2.07c.229.557.158 1.191-.19 1.682l-1.374 1.939a3.506 3.506 0 0 0-.644 2.024v2.409c0 .261-.117.51-.32.676l-1.2.985a.875.875 0 0 1-.89.132l-1.23-.51a1.75 1.75 0 0 0-2.126.644l-.273.41a.875.875 0 0 1-1.024.337l-.951-.343a.874.874 0 0 1-.578-.823V80.49l-.133-1.347a3.5 3.5 0 0 0-1.008-2.133l-1.823-1.822a.875.875 0 0 1-.19-.954l.637-1.537a.875.875 0 0 0-.19-.954l-1.388-1.388a.876.876 0 0 0-.953-.19l-.228.095a.875.875 0 0 1-.959-.195zM127.8 44.2C122.51 38.913 115.479 36 108 36c-7.48 0-14.511 2.913-19.8 8.201C82.913 49.49 80 56.521 80 64c0 7.48 2.912 14.51 8.2 19.8C93.49 89.087 100.52 92 108 92c7.479 0 14.51-2.912 19.799-8.2C133.087 78.51 136 71.48 136 64c0-7.479-2.913-14.51-8.201-19.799z" filter="url(#logo-a)" transform="translate(-64 -22)"/></svg>
